X:1
T: Mellonie's Jig
C:
R:Jig
Q:180
K:D
M:6/8
L:1/16
|:A2|F4A2 A2F2A2|A2F2A2 A2F2D2|GAB2G2 FGA2F2|B2G2E2 E4G2|
F4A2 A2F2A2|A2F2A2 d4A2|B2c2d2 A2F2d2|A2F2D2 D4:|
|:fg|a2f2d2 d2f2d2|e2f2d2 c4A2|GAB2G2 FGA2F2|B2G2E2 E4fg|
a2f2d2 d2f2d2|e2f2d2 c4A2|B2c2d2 A2F2d2|A2F2D2 D4:|
